svgs/jionews.svg

<svg xmlns="http://www.w3.org/2000/svg" viewBox="0 0 192 192"><path d="M21.06 153.267c-4.663-2.53-6.365-8.73-3.773-13.744 2.75-5.318 3.312-5.39 40.061-5.111l33.38.253 2.593 2.902c4.557 5.103 3.238 12.667-2.75 15.763-3.795 1.963-65.882 1.907-69.511-.063Zm92.053-19.927c-4.713-1.902-4.76-2.276-4.76-37.477 0-32.584.003-32.634 1.999-34.868 4.088-4.575 4.309-4.492 34.433 12.835 15.395 8.855 28.691 16.913 29.546 17.906.855.994 1.555 2.917 1.555 4.275 0 1.358-.7 3.282-1.555 4.275-1.694 1.967-56.835 33.97-58.372 33.878-.518-.031-1.799-.402-2.846-.824Zm-90.585-11.934c-7.153-3.115-8.744-11.666-3.108-16.702l2.768-2.473H89.87l3.021 3.022c3.405 3.404 4.008 7.599 1.728 12.009-2.681 5.183-4.304 5.41-38.383 5.372-23.903-.027-31.592-.307-33.708-1.228ZM19.42 87.319c-3.81-3.405-4.553-9.273-1.641-12.964 3.812-4.831 5.128-5.001 38.651-5.001 33.857 0 35.514.234 38.189 5.407 2.28 4.41 1.677 8.604-1.728 12.009l-3.021 3.021H22.188Zm1.64-30.891c-6.695-3.679-6.587-14.216.182-17.716 3.848-1.99 65.485-2.008 69.329-.02 5.988 3.096 7.307 10.661 2.75 15.764l-2.593 2.902-33.618.203c-28.523.172-33.986.001-36.05-1.133Z"/></svg>

<svg
    xmlns="http://www.w3.org/2000/svg"
    viewBox="0 0 192 192"
    id="vector">
    <path
        id="path"
        d="M 21.06 153.267 C 16.397 150.737 14.695 144.537 17.287 139.523 C 20.037 134.205 20.599 134.133 57.348 134.412 L 90.728 134.665 L 93.321 137.567 C 97.878 142.67 96.559 150.234 90.571 153.33 C 86.776 155.293 24.689 155.237 21.06 153.267 Z M 113.113 133.34 C 108.4 131.438 108.353 131.064 108.353 95.863 C 108.353 63.279 108.356 63.229 110.352 60.995 C 114.44 56.42 114.661 56.503 144.785 73.83 C 160.18 82.685 173.476 90.743 174.331 91.736 C 175.186 92.73 175.886 94.653 175.886 96.011 C 175.886 97.369 175.186 99.293 174.331 100.286 C 172.637 102.253 117.496 134.256 115.959 134.164 C 115.441 134.133 114.16 133.762 113.113 133.34 Z M 22.528 121.406 C 15.375 118.291 13.784 109.74 19.42 104.704 L 22.188 102.231 L 89.87 102.231 L 92.891 105.253 C 96.296 108.657 96.899 112.852 94.619 117.262 C 91.938 122.445 90.315 122.672 56.236 122.634 C 32.333 122.607 24.644 122.327 22.528 121.406 Z M 19.42 87.319 C 15.61 83.914 14.867 78.046 17.779 74.355 C 21.591 69.524 22.907 69.354 56.43 69.354 C 90.287 69.354 91.944 69.588 94.619 74.761 C 96.899 79.171 96.296 83.365 92.891 86.77 L 89.87 89.791 L 22.188 89.791 Z M 21.06 56.428 C 14.365 52.749 14.473 42.212 21.242 38.712 C 25.09 36.722 86.727 36.704 90.571 38.692 C 96.559 41.788 97.878 49.353 93.321 54.456 L 90.728 57.358 L 57.11 57.561 C 28.587 57.733 23.124 57.562 21.06 56.428 Z"
        fill="#000000"
        stroke-width="12"/>
</svg>
